X:1
T:Mount Sinai, LM
T:Mount Sinai, LM
T:From Wolfgang Amadeus Mozart (1756-1791) 
T:Public Domain Courtesy of the Cyber Hymnal™
C:From Wolfgang Amadeus Mozart (1756-1791)
Z:Public Domain
Z:Courtesy of the Cyber Hymnal™
%%score ( 1 2 ) ( 3 4 )
L:1/8
M:3/4
K:Bb
V:1 treble 
V:2 treble 
V:3 bass 
V:4 bass 
V:1
 [DF]2 | [DF]2 [FB]2 [FA]2 | [DB]4 [Fc]2 | [Fd]4 (fe) | (d2 c2) [FA]2 | (c2 B2) [=EG]2 | %6
 [Fc]4 [Fd]2 | F4 (AG) | F4 [Fc]2 | (c2 e2) [FA]2 | (c2 B2) [Fd]2 | (d2 f2) [FB]2 | (d2 c2) [Fd]2 | %13
 [Ee]2 [Fd]2 [Fc]2 | [Ff]4 (ec) | [FB]4 ([Fd][Ec]) | [DB]4 |] %17
V:2
 x2 | x6 | x6 | x4 F2 | F4 x2 | G4 x2 | x6 | F4 =E2 | F4 x2 | F4 x2 | F4 x2 | F4 x2 | F4 x2 | x6 | %14
 x4 G2 | x6 | x4 |] %17
V:3
 [B,,B,]2 | (B,2 D2) [F,C]2 | [G,B,]4 [F,A,]2 | [B,,B,]4 [E,B,]2 | (B,2 A,2) [F,C]2 | %5
 [=E,C]4 [B,C]2 | C4 [B,,B,]2 | [C,A,]4 (CB,) | [F,A,]4 [F,A,]2 | ([F,A,]2 C2) (C>A,) | %10
 (A,2 B,2) [B,,B,]2 | (B,2 D2) [D,B,]2 | (B,2 A,2) [_A,B,]2 | B,4 [E,A,]2 | [D,B,]4 (B,C) | %15
 [F,D]4 [F,A,]2 | [B,,B,]4 |] %17
V:4
 x2 | B,,4 x2 | x6 | x6 | F,4 x2 | x6 | (A,2 A,,2) x2 | x4 C,2 | x6 | x2 C2 C,2 | D,4 x2 | B,4 x2 | %12
 F,4 x2 | (G,2 F,2) x2 | x4 E,2 | x6 | x4 |] %17

